;Generated with Makelangelo 7.32.0
;FLAVOR:Marlin-polargraph
;MINX:-138.105
;MINY:-97.650
;MAXX:138.105
;MAXY:97.650
; 2022-08-27 at 15:11:37 AEST
;Start of user gcode

;End of user gcode
G28
M280 P0 S90 T50
M0 Pen In
G0 X0.000 Y0.000 F3000.0
M280 P0 S25 T50
M0 Lid Off
G1 X-2.303 Y2.036 F3000.0
G1 X-4.606 Y4.070 F3000.0
G1 X-6.907 Y6.103 F3000.0
G1 X-9.206 Y8.133 F3000.0
G1 X-11.503 Y10.160 F3000.0
G1 X-13.796 Y12.182 F3000.0
G1 X-16.086 Y14.199 F3000.0
G1 X-18.371 Y16.210 F3000.0
G1 X-20.651 Y18.214 F3000.0
G1 X-22.926 Y20.210 F3000.0
G1 X-25.194 Y22.197 F3000.0
G1 X-27.455 Y24.174 F3000.0
G1 X-29.708 Y26.141 F3000.0
G1 X-31.953 Y28.097 F3000.0
G1 X-34.189 Y30.040 F3000.0
G1 X-36.416 Y31.970 F3000.0
G1 X-38.632 Y33.887 F3000.0
G1 X-40.838 Y35.788 F3000.0
G1 X-43.033 Y37.674 F3000.0
G1 X-45.215 Y39.544 F3000.0
G1 X-47.385 Y41.397 F3000.0
G1 X-49.542 Y43.231 F3000.0
G1 X-51.685 Y45.047 F3000.0
G1 X-53.813 Y46.843 F3000.0
G1 X-55.927 Y48.619 F3000.0
G1 X-58.025 Y50.374 F3000.0
G1 X-60.107 Y52.107 F3000.0
G1 X-62.172 Y53.817 F3000.0
G1 X-64.220 Y55.504 F3000.0
G1 X-66.250 Y57.166 F3000.0
G1 X-68.261 Y58.804 F3000.0
G1 X-70.254 Y60.417 F3000.0
G1 X-72.227 Y62.003 F3000.0
G1 X-74.180 Y63.562 F3000.0
G1 X-76.113 Y65.093 F3000.0
G1 X-78.024 Y66.596 F3000.0
G1 X-79.913 Y68.071 F3000.0
G1 X-81.780 Y69.515 F3000.0
G1 X-83.625 Y70.930 F3000.0
G1 X-85.446 Y72.313 F3000.0
G1 X-87.244 Y73.665 F3000.0
G1 X-89.017 Y74.986 F3000.0
G1 X-90.765 Y76.273 F3000.0
G1 X-92.489 Y77.528 F3000.0
G1 X-94.186 Y78.748 F3000.0
G1 X-95.858 Y79.935 F3000.0
G1 X-97.502 Y81.087 F3000.0
G1 X-99.120 Y82.203 F3000.0
G1 X-100.710 Y83.284 F3000.0
G1 X-102.272 Y84.329 F3000.0
G1 X-103.805 Y85.337 F3000.0
G1 X-105.310 Y86.308 F3000.0
G1 X-106.785 Y87.241 F3000.0
G1 X-108.231 Y88.137 F3000.0
G1 X-109.646 Y88.994 F3000.0
G1 X-111.031 Y89.812 F3000.0
G1 X-112.386 Y90.592 F3000.0
G1 X-113.708 Y91.332 F3000.0
G1 X-115.000 Y92.033 F3000.0
G1 X-116.259 Y92.693 F3000.0
G1 X-117.486 Y93.313 F3000.0
G1 X-118.680 Y93.893 F3000.0
G1 X-119.842 Y94.432 F3000.0
G1 X-120.970 Y94.929 F3000.0
G1 X-122.064 Y95.386 F3000.0
G1 X-123.124 Y95.801 F3000.0
G1 X-124.150 Y96.174 F3000.0
G1 X-125.142 Y96.506 F3000.0
G1 X-126.099 Y96.796 F3000.0
G1 X-127.020 Y97.043 F3000.0
G1 X-127.907 Y97.249 F3000.0
G1 X-128.758 Y97.412 F3000.0
G1 X-129.573 Y97.533 F3000.0
G1 X-130.352 Y97.611 F3000.0
G1 X-131.094 Y97.647 F3000.0
G1 X-131.801 Y97.641 F3000.0
G1 X-132.470 Y97.592 F3000.0
G1 X-133.103 Y97.501 F3000.0
G1 X-133.699 Y97.367 F3000.0
G1 X-134.257 Y97.192 F3000.0
G1 X-134.778 Y96.973 F3000.0
G1 X-135.262 Y96.713 F3000.0
G1 X-135.708 Y96.411 F3000.0
G1 X-136.117 Y96.067 F3000.0
G1 X-136.487 Y95.681 F3000.0
G1 X-136.820 Y95.253 F3000.0
G1 X-137.114 Y94.784 F3000.0
G1 X-137.370 Y94.274 F3000.0
G1 X-137.588 Y93.723 F3000.0
G1 X-137.768 Y93.131 F3000.0
G1 X-137.910 Y92.499 F3000.0
G1 X-138.013 Y91.827 F3000.0
G1 X-138.078 Y91.114 F3000.0
G1 X-138.104 Y90.362 F3000.0
G1 X-138.092 Y89.571 F3000.0
G1 X-138.042 Y88.741 F3000.0
G1 X-137.953 Y87.872 F3000.0
G1 X-137.826 Y86.965 F3000.0
G1 X-137.660 Y86.020 F3000.0
G1 X-137.457 Y85.038 F3000.0
G1 X-137.215 Y84.019 F3000.0
G1 X-136.934 Y82.964 F3000.0
G1 X-136.616 Y81.872 F3000.0
G1 X-136.260 Y80.745 F3000.0
G1 X-135.866 Y79.583 F3000.0
G1 X-135.434 Y78.386 F3000.0
G1 X-134.964 Y77.155 F3000.0
G1 X-134.457 Y75.890 F3000.0
G1 X-133.912 Y74.593 F3000.0
G1 X-133.331 Y73.263 F3000.0
G1 X-132.712 Y71.901 F3000.0
G1 X-132.056 Y70.509 F3000.0
G1 X-131.363 Y69.085 F3000.0
G1 X-130.634 Y67.631 F3000.0
G1 X-129.869 Y66.148 F3000.0
G1 X-129.067 Y64.637 F3000.0
G1 X-128.230 Y63.097 F3000.0
G1 X-127.357 Y61.530 F3000.0
G1 X-126.449 Y59.936 F3000.0
G1 X-125.505 Y58.316 F3000.0
G1 X-124.526 Y56.670 F3000.0
G1 X-123.513 Y55.000 F3000.0
G1 X-122.466 Y53.306 F3000.0
G1 X-121.384 Y51.589 F3000.0
G1 X-120.269 Y49.850 F3000.0
G1 X-119.120 Y48.089 F3000.0
G1 X-117.938 Y46.307 F3000.0
G1 X-116.723 Y44.504 F3000.0
G1 X-115.476 Y42.683 F3000.0
G1 X-114.196 Y40.843 F3000.0
G1 X-112.885 Y38.985 F3000.0
G1 X-111.543 Y37.110 F3000.0
G1 X-110.169 Y35.219 F3000.0
G1 X-108.765 Y33.313 F3000.0
G1 X-107.331 Y31.393 F3000.0
G1 X-105.867 Y29.458 F3000.0
G1 X-104.373 Y27.511 F3000.0
G1 X-102.850 Y25.552 F3000.0
G1 X-101.299 Y23.582 F3000.0
G1 X-99.719 Y21.602 F3000.0
G1 X-98.112 Y19.612 F3000.0
G1 X-96.477 Y17.613 F3000.0
G1 X-94.816 Y15.607 F3000.0
G1 X-93.128 Y13.595 F3000.0
G1 X-91.415 Y11.576 F3000.0
G1 X-89.676 Y9.552 F3000.0
G1 X-87.912 Y7.525 F3000.0
G1 X-86.123 Y5.493 F3000.0
G1 X-84.311 Y3.460 F3000.0
G1 X-82.475 Y1.425 F3000.0
G1 X-80.616 Y-0.611 F3000.0
G1 X-78.735 Y-2.646 F3000.0
G1 X-76.832 Y-4.680 F3000.0
G1 X-74.907 Y-6.712 F3000.0
G1 X-72.962 Y-8.742 F3000.0
G1 X-70.996 Y-10.767 F3000.0
G1 X-69.011 Y-12.788 F3000.0
G1 X-67.006 Y-14.803 F3000.0
G1 X-64.983 Y-16.812 F3000.0
G1 X-62.942 Y-18.813 F3000.0
G1 X-60.883 Y-20.807 F3000.0
G1 X-58.807 Y-22.791 F3000.0
G1 X-56.715 Y-24.765 F3000.0
G1 X-54.608 Y-26.729 F3000.0
G1 X-52.485 Y-28.681 F3000.0
G1 X-50.347 Y-30.620 F3000.0
G1 X-48.195 Y-32.547 F3000.0
G1 X-46.030 Y-34.459 F3000.0
G1 X-43.852 Y-36.356 F3000.0
G1 X-41.662 Y-38.237 F3000.0
G1 X-39.461 Y-40.102 F3000.0
G1 X-37.248 Y-41.949 F3000.0
G1 X-35.025 Y-43.778 F3000.0
G1 X-32.793 Y-45.588 F3000.0
G1 X-30.551 Y-47.378 F3000.0
G1 X-28.300 Y-49.148 F3000.0
G1 X-26.042 Y-50.896 F3000.0
G1 X-23.777 Y-52.622 F3000.0
G1 X-21.505 Y-54.325 F3000.0
G1 X-19.227 Y-56.005 F3000.0
G1 X-16.943 Y-57.660 F3000.0
G1 X-14.655 Y-59.291 F3000.0
G1 X-12.363 Y-60.895 F3000.0
G1 X-10.068 Y-62.473 F3000.0
G1 X-7.769 Y-64.024 F3000.0
G1 X-5.469 Y-65.547 F3000.0
G1 X-3.167 Y-67.042 F3000.0
G1 X-0.864 Y-68.507 F3000.0
G1 X1.439 Y-69.943 F3000.0
G1 X3.742 Y-71.348 F3000.0
G1 X6.044 Y-72.722 F3000.0
G1 X8.344 Y-74.065 F3000.0
G1 X10.642 Y-75.375 F3000.0
G1 X12.937 Y-76.653 F3000.0
G1 X15.228 Y-77.898 F3000.0
G1 X17.515 Y-79.108 F3000.0
G1 X19.797 Y-80.284 F3000.0
G1 X22.073 Y-81.426 F3000.0
G1 X24.344 Y-82.531 F3000.0
G1 X26.608 Y-83.601 F3000.0
G1 X28.864 Y-84.635 F3000.0
G1 X31.112 Y-85.632 F3000.0
G1 X33.352 Y-86.592 F3000.0
G1 X35.582 Y-87.514 F3000.0
G1 X37.802 Y-88.398 F3000.0
G1 X40.012 Y-89.244 F3000.0
G1 X42.211 Y-90.050 F3000.0
G1 X44.398 Y-90.818 F3000.0
G1 X46.573 Y-91.546 F3000.0
G1 X48.734 Y-92.235 F3000.0
G1 X50.883 Y-92.883 F3000.0
G1 X53.017 Y-93.491 F3000.0
G1 X55.136 Y-94.059 F3000.0
G1 X57.240 Y-94.585 F3000.0
G1 X59.328 Y-95.071 F3000.0
G1 X61.399 Y-95.515 F3000.0
G1 X63.454 Y-95.917 F3000.0
G1 X65.491 Y-96.278 F3000.0
G1 X67.509 Y-96.597 F3000.0
G1 X69.509 Y-96.874 F3000.0
G1 X71.490 Y-97.109 F3000.0
G1 X73.450 Y-97.302 F3000.0
G1 X75.390 Y-97.453 F3000.0
G1 X77.310 Y-97.561 F3000.0
G1 X79.207 Y-97.627 F3000.0
G1 X81.083 Y-97.650 F3000.0
G1 X82.936 Y-97.631 F3000.0
G1 X84.766 Y-97.569 F3000.0
G1 X86.573 Y-97.465 F3000.0
G1 X88.355 Y-97.319 F3000.0
G1 X90.113 Y-97.131 F3000.0
G1 X91.845 Y-96.900 F3000.0
G1 X93.553 Y-96.627 F3000.0
G1 X95.234 Y-96.312 F3000.0
G1 X96.889 Y-95.955 F3000.0
G1 X98.516 Y-95.557 F3000.0
G1 X100.117 Y-95.117 F3000.0
G1 X101.689 Y-94.636 F3000.0
G1 X103.233 Y-94.113 F3000.0
G1 X104.749 Y-93.550 F3000.0
G1 X106.235 Y-92.946 F3000.0
G1 X107.692 Y-92.302 F3000.0
G1 X109.119 Y-91.617 F3000.0
G1 X110.516 Y-90.893 F3000.0
G1 X111.881 Y-90.129 F3000.0
G1 X113.216 Y-89.326 F3000.0
G1 X114.519 Y-88.484 F3000.0
G1 X115.791 Y-87.604 F3000.0
G1 X117.030 Y-86.686 F3000.0
G1 X118.236 Y-85.730 F3000.0
G1 X119.410 Y-84.737 F3000.0
G1 X120.551 Y-83.706 F3000.0
G1 X121.657 Y-82.640 F3000.0
G1 X122.731 Y-81.538 F3000.0
G1 X123.770 Y-80.400 F3000.0
G1 X124.774 Y-79.227 F3000.0
G1 X125.744 Y-78.020 F3000.0
G1 X126.679 Y-76.779 F3000.0
G1 X127.579 Y-75.505 F3000.0
G1 X128.443 Y-74.197 F3000.0
G1 X129.271 Y-72.858 F3000.0
G1 X130.064 Y-71.487 F3000.0
G1 X130.820 Y-70.085 F3000.0
G1 X131.540 Y-68.652 F3000.0
G1 X132.223 Y-67.190 F3000.0
G1 X132.870 Y-65.698 F3000.0
G1 X133.480 Y-64.178 F3000.0
G1 X134.052 Y-62.629 F3000.0
G1 X134.587 Y-61.054 F3000.0
G1 X135.085 Y-59.452 F3000.0
G1 X135.545 Y-57.825 F3000.0
G1 X135.968 Y-56.172 F3000.0
G1 X136.353 Y-54.495 F3000.0
G1 X136.699 Y-52.794 F3000.0
G1 X137.008 Y-51.070 F3000.0
G1 X137.279 Y-49.324 F3000.0
G1 X137.511 Y-47.556 F3000.0
G1 X137.705 Y-45.768 F3000.0
G1 X137.861 Y-43.960 F3000.0
G1 X137.979 Y-42.133 F3000.0
G1 X138.058 Y-40.287 F3000.0
G1 X138.099 Y-38.424 F3000.0
G1 X138.101 Y-36.545 F3000.0
G1 X138.065 Y-34.649 F3000.0
G1 X137.991 Y-32.739 F3000.0
G1 X137.878 Y-30.814 F3000.0
G1 X137.727 Y-28.875 F3000.0
G1 X137.538 Y-26.925 F3000.0
G1 X137.310 Y-24.962 F3000.0
G1 X137.044 Y-22.989 F3000.0
G1 X136.740 Y-21.006 F3000.0
G1 X136.398 Y-19.013 F3000.0
G1 X136.018 Y-17.012 F3000.0
G1 X135.600 Y-15.004 F3000.0
G1 X135.145 Y-12.990 F3000.0
G1 X134.652 Y-10.969 F3000.0
G1 X134.121 Y-8.944 F3000.0
G1 X133.553 Y-6.916 F3000.0
G1 X132.948 Y-4.884 F3000.0
G1 X132.306 Y-2.850 F3000.0
G1 X131.627 Y-0.814 F3000.0
G1 X130.912 Y1.221 F3000.0
G1 X130.160 Y3.256 F3000.0
G1 X129.372 Y5.290 F3000.0
G1 X128.548 Y7.322 F3000.0
G1 X127.689 Y9.350 F3000.0
G1 X126.793 Y11.374 F3000.0
G1 X125.863 Y13.393 F3000.0
G1 X124.897 Y15.407 F3000.0
G1 X123.897 Y17.413 F3000.0
G1 X122.862 Y19.412 F3000.0
G1 X121.793 Y21.403 F3000.0
G1 X120.691 Y23.384 F3000.0
G1 X119.554 Y25.356 F3000.0
G1 X118.385 Y27.316 F3000.0
G1 X117.182 Y29.264 F3000.0
G1 X115.947 Y31.200 F3000.0
G1 X114.680 Y33.122 F3000.0
G1 X113.381 Y35.029 F3000.0
G1 X112.050 Y36.922 F3000.0
G1 X110.688 Y38.798 F3000.0
G1 X109.295 Y40.658 F3000.0
G1 X107.872 Y42.500 F3000.0
G1 X106.419 Y44.323 F3000.0
G1 X104.936 Y46.127 F3000.0
G1 X103.424 Y47.911 F3000.0
G1 X101.884 Y49.675 F3000.0
G1 X100.315 Y51.416 F3000.0
G1 X98.718 Y53.136 F3000.0
G1 X97.094 Y54.832 F3000.0
G1 X95.442 Y56.504 F3000.0
G1 X93.764 Y58.152 F3000.0
G1 X92.060 Y59.775 F3000.0
G1 X90.331 Y61.371 F3000.0
G1 X88.576 Y62.941 F3000.0
G1 X86.797 Y64.484 F3000.0
G1 X84.993 Y65.998 F3000.0
G1 X83.166 Y67.484 F3000.0
G1 X81.316 Y68.941 F3000.0
G1 X79.443 Y70.368 F3000.0
G1 X77.548 Y71.764 F3000.0
G1 X75.631 Y73.128 F3000.0
G1 X73.694 Y74.461 F3000.0
G1 X71.736 Y75.762 F3000.0
G1 X69.758 Y77.030 F3000.0
G1 X67.760 Y78.264 F3000.0
G1 X65.744 Y79.465 F3000.0
G1 X63.709 Y80.630 F3000.0
G1 X61.657 Y81.761 F3000.0
G1 X59.588 Y82.856 F3000.0
G1 X57.502 Y83.915 F3000.0
G1 X55.400 Y84.938 F3000.0
G1 X53.282 Y85.924 F3000.0
G1 X51.150 Y86.872 F3000.0
G1 X49.004 Y87.783 F3000.0
G1 X46.844 Y88.656 F3000.0
G1 X44.671 Y89.490 F3000.0
G1 X42.485 Y90.285 F3000.0
G1 X40.288 Y91.041 F3000.0
G1 X38.079 Y91.757 F3000.0
G1 X35.860 Y92.434 F3000.0
G1 X33.631 Y93.070 F3000.0
G1 X31.392 Y93.666 F3000.0
G1 X29.145 Y94.221 F3000.0
G1 X26.890 Y94.735 F3000.0
G1 X24.627 Y95.208 F3000.0
G1 X22.358 Y95.640 F3000.0
G1 X20.082 Y96.030 F3000.0
G1 X17.800 Y96.378 F3000.0
G1 X15.514 Y96.685 F3000.0
G1 X13.223 Y96.949 F3000.0
G1 X10.929 Y97.172 F3000.0
G1 X8.631 Y97.352 F3000.0
G1 X6.332 Y97.490 F3000.0
G1 X4.030 Y97.585 F3000.0
G1 X1.727 Y97.638 F3000.0
G1 X-0.576 Y97.649 F3000.0
G1 X-2.879 Y97.617 F3000.0
G1 X-5.181 Y97.543 F3000.0
G1 X-7.482 Y97.426 F3000.0
G1 X-9.781 Y97.267 F3000.0
G1 X-12.076 Y97.066 F3000.0
G1 X-14.369 Y96.822 F3000.0
G1 X-16.658 Y96.537 F3000.0
G1 X-18.942 Y96.209 F3000.0
G1 X-21.220 Y95.840 F3000.0
G1 X-23.493 Y95.429 F3000.0
G1 X-25.760 Y94.977 F3000.0
G1 X-28.019 Y94.483 F3000.0
G1 X-30.270 Y93.948 F3000.0
G1 X-32.513 Y93.373 F3000.0
G1 X-34.747 Y92.757 F3000.0
G1 X-36.971 Y92.100 F3000.0
G1 X-39.185 Y91.404 F3000.0
G1 X-41.388 Y90.668 F3000.0
G1 X-43.579 Y89.892 F3000.0
G1 X-45.759 Y89.078 F3000.0
G1 X-47.925 Y88.224 F3000.0
G1 X-50.079 Y87.332 F3000.0
G1 X-52.218 Y86.403 F3000.0
G1 X-54.343 Y85.436 F3000.0
G1 X-56.453 Y84.431 F3000.0
G1 X-58.547 Y83.390 F3000.0
G1 X-60.625 Y82.313 F3000.0
G1 X-62.686 Y81.200 F3000.0
G1 X-64.729 Y80.052 F3000.0
G1 X-66.754 Y78.869 F3000.0
G1 X-68.761 Y77.651 F3000.0
G1 X-70.749 Y76.400 F3000.0
G1 X-72.717 Y75.116 F3000.0
G1 X-74.665 Y73.799 F3000.0
G1 X-76.592 Y72.450 F3000.0
G1 X-78.498 Y71.069 F3000.0
G1 X-80.382 Y69.658 F3000.0
G1 X-82.244 Y68.216 F3000.0
G1 X-84.083 Y66.745 F3000.0
G1 X-85.898 Y65.245 F3000.0
G1 X-87.689 Y63.716 F3000.0
G1 X-89.456 Y62.160 F3000.0
G1 X-91.199 Y60.576 F3000.0
G1 X-92.916 Y58.967 F3000.0
G1 X-94.607 Y57.331 F3000.0
G1 X-96.271 Y55.671 F3000.0
G1 X-97.909 Y53.987 F3000.0
G1 X-99.520 Y52.279 F3000.0
G1 X-101.103 Y50.548 F3000.0
G1 X-102.658 Y48.796 F3000.0
G1 X-104.184 Y47.022 F3000.0
G1 X-105.681 Y45.228 F3000.0
G1 X-107.149 Y43.414 F3000.0
G1 X-108.588 Y41.581 F3000.0
G1 X-109.995 Y39.730 F3000.0
G1 X-111.373 Y37.862 F3000.0
G1 X-112.719 Y35.978 F3000.0
G1 X-114.034 Y34.077 F3000.0
G1 X-115.318 Y32.163 F3000.0
G1 X-116.569 Y30.234 F3000.0
G1 X-117.788 Y28.292 F3000.0
G1 X-118.974 Y26.337 F3000.0
G1 X-120.127 Y24.371 F3000.0
G1 X-121.246 Y22.395 F3000.0
G1 X-122.332 Y20.409 F3000.0
G1 X-123.384 Y18.414 F3000.0
G1 X-124.402 Y16.411 F3000.0
G1 X-125.384 Y14.401 F3000.0
G1 X-126.332 Y12.384 F3000.0
G1 X-127.245 Y10.362 F3000.0
G1 X-128.123 Y8.336 F3000.0
G1 X-128.965 Y6.306 F3000.0
G1 X-129.771 Y4.274 F3000.0
G1 X-130.541 Y2.239 F3000.0
G1 X-131.274 Y0.204 F3000.0
G1 X-131.971 Y-1.832 F3000.0
G1 X-132.632 Y-3.867 F3000.0
G1 X-133.255 Y-5.900 F3000.0
G1 X-133.842 Y-7.930 F3000.0
G1 X-134.391 Y-9.957 F3000.0
G1 X-134.903 Y-11.980 F3000.0
G1 X-135.377 Y-13.998 F3000.0
G1 X-135.814 Y-16.009 F3000.0
G1 X-136.213 Y-18.014 F3000.0
G1 X-136.574 Y-20.010 F3000.0
G1 X-136.897 Y-21.998 F3000.0
G1 X-137.182 Y-23.977 F3000.0
G1 X-137.428 Y-25.945 F3000.0
G1 X-137.637 Y-27.902 F3000.0
G1 X-137.807 Y-29.846 F3000.0
G1 X-137.939 Y-31.778 F3000.0
G1 X-138.033 Y-33.696 F3000.0
G1 X-138.088 Y-35.599 F3000.0
G1 X-138.105 Y-37.487 F3000.0
G1 X-138.083 Y-39.358 F3000.0
G1 X-138.023 Y-41.212 F3000.0
G1 X-137.925 Y-43.049 F3000.0
G1 X-137.788 Y-44.866 F3000.0
G1 X-137.613 Y-46.665 F3000.0
G1 X-137.400 Y-48.443 F3000.0
G1 X-137.148 Y-50.199 F3000.0
G1 X-136.858 Y-51.934 F3000.0
G1 X-136.531 Y-53.647 F3000.0
G1 X-136.165 Y-55.336 F3000.0
G1 X-135.761 Y-57.001 F3000.0
G1 X-135.320 Y-58.642 F3000.0
G1 X-134.841 Y-60.256 F3000.0
G1 X-134.324 Y-61.845 F3000.0
G1 X-133.770 Y-63.407 F3000.0
G1 X-133.179 Y-64.941 F3000.0
G1 X-132.551 Y-66.447 F3000.0
G1 X-131.886 Y-67.924 F3000.0
G1 X-131.185 Y-69.372 F3000.0
G1 X-130.446 Y-70.790 F3000.0
G1 X-129.672 Y-72.176 F3000.0
G1 X-128.861 Y-73.532 F3000.0
G1 X-128.015 Y-74.855 F3000.0
G1 X-127.133 Y-76.146 F3000.0
G1 X-126.216 Y-77.404 F3000.0
G1 X-125.263 Y-78.628 F3000.0
G1 X-124.276 Y-79.818 F3000.0
G1 X-123.254 Y-80.973 F3000.0
G1 X-122.198 Y-82.093 F3000.0
G1 X-121.108 Y-83.178 F3000.0
G1 X-119.984 Y-84.226 F3000.0
G1 X-118.827 Y-85.238 F3000.0
G1 X-117.637 Y-86.212 F3000.0
G1 X-116.414 Y-87.150 F3000.0
G1 X-115.159 Y-88.049 F3000.0
G1 X-113.872 Y-88.910 F3000.0
G1 X-112.553 Y-89.732 F3000.0
G1 X-111.202 Y-90.516 F3000.0
G1 X-109.821 Y-91.260 F3000.0
G1 X-108.409 Y-91.964 F3000.0
G1 X-106.967 Y-92.629 F3000.0
G1 X-105.496 Y-93.253 F3000.0
G1 X-103.995 Y-93.837 F3000.0
G1 X-102.465 Y-94.379 F3000.0
G1 X-100.906 Y-94.881 F3000.0
G1 X-99.320 Y-95.342 F3000.0
G1 X-97.706 Y-95.761 F3000.0
G1 X-96.065 Y-96.139 F3000.0
G1 X-94.397 Y-96.475 F3000.0
G1 X-92.702 Y-96.769 F3000.0
G1 X-90.982 Y-97.020 F3000.0
G1 X-89.237 Y-97.230 F3000.0
G1 X-87.467 Y-97.398 F3000.0
G1 X-85.672 Y-97.523 F3000.0
G1 X-83.854 Y-97.605 F3000.0
G1 X-82.012 Y-97.646 F3000.0
G1 X-80.148 Y-97.644 F3000.0
G1 X-78.261 Y-97.599 F3000.0
G1 X-76.353 Y-97.512 F3000.0
G1 X-74.423 Y-97.383 F3000.0
G1 X-72.472 Y-97.211 F3000.0
G1 X-70.502 Y-96.997 F3000.0
G1 X-68.512 Y-96.741 F3000.0
G1 X-66.502 Y-96.443 F3000.0
G1 X-64.475 Y-96.103 F3000.0
G1 X-62.429 Y-95.721 F3000.0
G1 X-60.366 Y-95.298 F3000.0
G1 X-58.286 Y-94.833 F3000.0
G1 X-56.190 Y-94.327 F3000.0
G1 X-54.078 Y-93.780 F3000.0
G1 X-51.951 Y-93.192 F3000.0
G1 X-49.810 Y-92.564 F3000.0
G1 X-47.655 Y-91.896 F3000.0
G1 X-45.487 Y-91.187 F3000.0
G1 X-43.306 Y-90.439 F3000.0
G1 X-41.113 Y-89.652 F3000.0
G1 X-38.909 Y-88.826 F3000.0
G1 X-36.693 Y-87.961 F3000.0
G1 X-34.468 Y-87.058 F3000.0
G1 X-32.233 Y-86.117 F3000.0
